X: 34
T: Dancing Song (f)
C: Teton Sioux band 1911-1914
N: Derived from sioux034.krn
O: South Dakota, U.S.A.
N: Teton Sioux Music by Frances Densmore, 1918
Z: transcribed to **kern format by Craig Sapp
L: 1/8
M: 2/4
Q: 1/4=58
K: Db clef=bass
%%linebreak <none>
F4- [I:setbarnb 2]| 
F2G F | 
F E E C | 
B,4 ]|:  
F4- | 
F2G F | 
F E E C | 
B,4 | 
B,4 | 
B,2D B, | 
B, A,A,2 | 
F,4 | 
B,4 | 
B,2E B, | 
D B,A,2 | 
F,4 | 
F,4- | 
F,2A, F, | 
F, E, E, C, | 
B,,4 | 
F,4 | 
F,2A, F, | 
B, A,A,2 | 
F,4 | 
F,4- | 
F,2A, F, | 
F, E, E, C, | 
B,,2D,2 | 
E, D,D,2 | 
D, B,,B,,2 | 
B,,4 | 
B,,4 :|]  



